X:1
T:A tout iamais
T:Claudin de Sermisy
T:Source : Livre XIX de chansons nouvelles à 4 parties---Paris---P.Attaingnant---1539. Editor : André Vierendeels (21/06/18) Notes : Original clefs : C1, C3, C4, F3 Original note values have been halved Original note values have been quartered in 3-beat measures Editorial accidentals above the staff Square brackets indicate ligatures.
T:A tout iamais
T:©
T:©
T:©
T:©
C:Claudin de Sermisy
Z:©
%%score [ 1 2 3 4 ]
L:1/8
Q:1/4=120
M:2/2
K:F
V:1 treble nm="Soprano" snm="S"
V:2 treble nm="Alto" snm="A"
V:3 treble-8 nm="Tenor" snm="T"
V:4 bass nm="Bass" snm="B"
V:1
 z2 A2 c4 | B4 A4- | A2 GF G2 A2- | A2 G2 A2 A2 | A4 G4 | F2 F2 F2 F2 | GFGA B2 B2 | A2 c3 BAG | %8
w: A tout|ia- mais,|_ _ _ _ _|* * * à|tout ia-|mais vous fai- re'hum-|* * * * * ble|ser- vi- * * *|
 AGFE DC F2- | F2 E2 F2 A2 | A2 A2 G4 | z2 G2 B2 B2 | AGAB c2 d2- | dc c4 B2 |[M:3/4] c4 z2 | %15
w: |* * ce, prom-|pte se- ray|com- me'à cel-|luy _ _ _ _ sans|_ _ vi- *|ce,|
 A2 A2 G2 | B4 A2 | B4 A2 |[M:2/2] G2 F2 E2 E2 |: z2 F2 F2 G2 | A4 z2 G2 | c3 B A2 A2 | %22
w: à qui ie|suis sans|def- fault|ter- my- né- e,|croy- ez qu'à|vous suis|de _ _ bon|
 G2 B3 A A2- | A2 G2 A2 A2 | B3 A G2 F2 | E2 F4 E2 | F8- | F8- | F8- | F8- | F8- | F8- | F8- | %33
w: cueur don- * né-|* * e, suis|de bon cueur don-|né- * *|e.|_||||||
 F8 |] %34
w: |
V:2
 z4 C4 | D2 E2 F3 E/D/ | CB,CD E2 F2 | D2 D2 F3 E/D/ | C2 D4 C2 | D2 D2 D2 D2 | B,2 _E2 DCDE | %7
w: A|tout ia- mais, _ _|_ _ _ _ _ _|||* vous fai- re'hum-|ble ser- vi- * * *|
 F2 G2 E2 C2- | C2 D4 B,2 | C4 A,2 F2 | F2 F2 E2 C2 | E2 E2 DCDE | F2 F2 E2 D2 | G2 A2 G4 | %14
w: * * ce, hum-|* ble ser-|vi- ce, prom-|pte se- ray com-|me'à cel- luy _ _ _|_ sans vi- *||
[M:3/4] E4 z2 | F2 F2 E2 | G4 F2 | F4 _E2 |[M:2/2] _E2 C2 C2 C2 |: z2 C2 D2 D2 | F4 E4 | F6 F2 | %22
w: ce,|à qui ie|suis sans|def- fault|ter- my- né- e,|croy- ez qu'à|vous suis|de bon|
 D2 G2 F4 | D4 D2 D2 | F3 E D4 | C2 B,2 C4 | A,2 C2 D2 D2 | F4 E4 | F6 F2 | D2 G2 F4 | D4 D2 D2 | %31
w: cueur don- né-|* e, suis|de bon cueur|don- né- *|e, croy- ez qu'à|vous suis|de bon|cueur don- né-|* e, suis|
 F3 E D4 | C2 B,2 C4 | C8 |] %34
w: de bon cueur|don- né- *|e.|
V:3
 z8 | z4 A4- | A4 c4 | B4 A4- | A4 z2 G2 | B4 A4 | G2 c2 c2 B2 | c2 G2 c3 B | A2 B3 AGF | %9
w: |A|_ tout|ia- mais,|_ à|tout ia-|mais vous fai- re'hum-|ble ser- vi- *||
 G4 F2 c2 | d2 c2 c2 G2 | c2 c2 BABc | d2 c2 c2 f2 | e2 f2 d4 |[M:3/4] c4 z2 | c2 c2 c2 | d4 d2 | %17
w: * ce, prom-|pte se- ray com-|me'à cel- luy _ _ _|_ com- m'à cel-|luy sans vi-|ce,|à qui ie|suis sans|
 d4 c2 |[M:2/2] B2 A2 G2 G2 |: z2 A2 A2 B2 | c4 z2 c2 | c6 c2 | B2 d3 c BA | B4 A2 A2 | %24
w: def- fault|ter- my- né- e,|croy- ez qu'à|vous suis|de bon|cueur don- * * *|né- e, suis|
 d3 c B2 A2 | G2 F2 G4 | F2 A2 A2 B2 | c4 z2 c2 | c6 c2 | B2 d3 c BA | B4 A2 A2 | d3 c B2 A2 | %32
w: de bon cueur don-|né- * *|e, croy- ez qu'à|vous suis|de bon|cueur don- * * *|né- e, suis|de bon cueur don-|
 G2 F2 G4 | F8 |] %34
w: né- * *|e.|
V:4
 z2 F,2 A,4 | G,4 F,4- | F,2 E,D, C,2 F,2 | G,4 D,2 D,2 | F,4 E,4 | D,4 D,4 | _E,2 C,2 G,2 G,2 | %7
w: A tout|ia- mais,|_ _ _ _ à|tout ia- mais,|_ _|* vous|fai- re'hum- ble ser-|
 F,2 E,D, C,2 F,2- | F,E,D,C, B,,2 D,2 | C,4 z2 F,2 | D,2 F,2 C,4 | z2 C,2 G,2 G,2 | %12
w: vi- * * * *||ce, prom-|pte se- ray|com- me'à cel-|
 F,E,F,G, A,2 B,2 |"^-natural""^-natural" C2 F,2 G,4 |[M:3/4] C,4 z2 | F,2 F,2 C,2 | G,4 D,2 | %17
w: luy _ _ _ _ _|_ sans vi-|ce,|à qui ie|suis sans|
 B,,4 C,2 |[M:2/2] _E,2 F,2 C,2 C,2 |: z2 F,2 D,2 G,2 | F,G,A,B, C4 | z2 F,2 F,2 F,2 | %22
w: def- fault|ter- my- né- e,|croy- ez qu'à|vous _ _ _ _|suis de bon|
 G,3 A, B,2 F,2 | G,4 D,4 | z2 B,,2 B,,2 B,,2 | C,2 D,2 C,4 | F,2 F,2 D,2 G,2 | F,G,A,B, C4 | %28
w: cueur don- né- *|* e,|suis de bon|cueur don- né-|e, croy- ez qu'à|vous _ _ _ _|
 z2 F,2 F,2 F,2 | G,3 A, B,2 F,2 | G,4 D,4 | z2 B,,2 B,,2 B,,2 | C,2 D,2 C,4 | F,8 |] %34
w: suis de bon|cueur don- né- *|* e,|de bon cueur|don- né- *|e.|

